X: 1
T: Filippo Goes To Hospital
M: 4/4
L: 1/8
R: barndance
K: Dmaj
Adde fdef|eA~A2 agfe|eddB ABde|f/e/d ef eA A/B/c|
d2de fdef|eA~A2 agfe|eddB ABde|f/e/d ef edce|
df~f2 afed|edc/d/e AeFA|df~f2 afed|e2A/d/e b2af|
df~f2 afed|edc/d/e A2D/F/A|B2BA Bded|feed eddB|
